X: 19134
T: Irish Washerwoman, The
R: jig
M: 6/8
K: Gmajor
|:BGG DGG|BGB dcB|cAA EAA|cAc edc|
BGG DGG|BGB dcB|cBc Adc|BGG G3:|
|:gdg gdg|gdg bag|fdf fdf|fdf agf|
egg dgg|cgg B2B|cBc Adc|1 BGG G2d:|2 BGG G2A||
|:BGG D3|BGB dcB|cAA E3|cAc edc|
B3 D3|BGB dcB|cBc Adc|BGG G3:|
|:g3 gdg|gdg bag|f3 fdf|fdf agf|
e2g d2g|cgg B3|cBc Adc|1 BGG G2d:|2 BGG G2A||

